X:5
T:Budgie's Ball Jigs
C:From Aiofe Granville's 'S�imh�n S�'
T: Budgie's Ball (Conal O'Gr�da)
R: jig
M: 6/8
L: 1/8
K: Gmaj
dgg {b}gdB | cea {c'}agf | {b}gdb {b}gdB | {d}cAd dBc |
dgg {b}gdB | cea {c'}agf | {b}gdb {b}gdB | {d}cAd ~G3:|
dBB dBB | ceg {b}geg | dBB dBB | ADD cBA |
dBB dBB | ceg {b}geg | bgd ~g2 B | {d}cAd ~G3 :|
T: The Bank Of Turf
R: jig
M: 6/8
L: 1/8
K: Dmaj
dB|:ABA DFA|BAF DFA|dcd ede|~fef def|
~g3 gab|afd B3|1efe e2d|cBA AdB:|2ABA efe|d3 dcd||
|:eAA efg|fed fga|gfe fed|edB ABd|
eAA efg|fdd fga|gfe dcB|1A3 Bcd:|2A3 AdB||
T:Shores of Lough Gowna, The
T:(Added by SM)
M:6/8
L:1/8
K:D
||:B3 BAF|FEF DFA|B3 BAF|d2e fed|B3 BAF|FEF DFA|def geg|fdB B2A:||:
def a2b|afb afe|dFA def|gfe fdB|def afb|afb afe|def geg|fdB B2A:||

